X:1309
L:1/8
M:3/4
K:Eb
"Eb" b>=a b>c' b>a |"^tr" b2 g2 g2 | b>=a b>c' b>a |"^tr""Bb7" b2 a2 a2 | b>=a b>c' b>a | 
"^tr" b2 b2 b2 |"^tr""Ab" a2 c'2 c'2 |"^tr""Eb" g2 b2 b2 | b>=a b>c' b>a | b2 g2 g2 | 
 b>=a b>c' b>a |"Bb7" b2 a2 a2 |"F7" (3f=ef (3=agf (3_edc |"Bb" B2 (3Bdf b2 |"F7" =a2 (3agf (3edc | 
"Bb" B2 b2 z2 ||"Bb7" a>a f>f d>d | Bd fc' ba |"Eb" g>d e2 c2 | B3 g eg |"Fm" ac f3 a | 
"Eb" gB e3 g |"Bb7" fB df bd |"Eb" e2 e2 z2 :|[K:Ab]"Ab" c>c =B2 c2 | f>f e4 |"^tr" e2 a>g fe | 
"Eb7" g>d' g>d' g2 | d>d c2 d2 | f>f e4 |"^tr" e2 g>f ed |"Ab" f>c' f>c' f2 | c>c =B2 c2 | f>f e4 | 
"^tr" e2 a>g fe |"Db" .g2 !>!f4 |"^tr""Eb7" e2 b>a gf |"^tr""Ab" e2 a>g fe |"Eb" g>f ed cB | 
"Ab" A2 a2 z2 |]

